X:525
T:B525-  Willow, Willow
S:(2nd/2)
Q:1/4=120
L:1/4
M:3/4
K:Dm
A|def|^cAA/A/|A3/2B/G|A2A|\
=B3/2^c/d|(d2^c)|(f2e)|d3/2e/^c|\
d2e/f/|g3/2f/e|fdf|e3/2f/e|\
^c2A|=B3/2^c/d|(d2^c)|(f2e)|\
d3/2e/^c|d2e|fga|gfe|\
fed|e2e|f3/2e/f|ggg|\
g3/2a/^f|g2A/A/|=B3/2^c/d|(d2^c)|\
(f2e)|d3/2e/^c|.d2|]

